Newaita-dark/actions/16/accept_signal.svg

<svg height="16" viewBox="0 0 16 16" width="16" xmlns="http://www.w3.org/2000/svg"><path d="m12.238281 1.449219c-.113281 0-.226562.011719-.332031.039062v-.035156h-9.921875c-.242187 0-.464844.132813-.582031.347656-.113282.210938-.101563.472657.035156.675781l3.726562 5.585938-3.726562 5.589844c-.136719.203125-.148438.460937-.035156.675781.117187.214844.339844.347656.582031.347656h9.921875v-.039062c.105469.027343.21875.042969.332031.042969h.992188c.734375 0 1.324219-.589844 1.324219-1.324219v-10.585938c0-.730469-.589844-1.320312-1.324219-1.320312zm-9.023437 1.320312h9.355468c.363282 0 .660157.296875.660157.664063v9.261718c0 .363282-.296875.660157-.660157.660157h-1.65625v.003906h-7.699218l3.285156-4.929687c.148438-.222657.148438-.511719 0-.730469zm0 0" fill="#e0e0e0"/></svg>

<svg xmlns="http://www.w3.org/2000/svg" xmlns:xlink="http://www.w3.org/1999/xlink" width="16px" height="16px" viewBox="0 0 16 16" version="1.1">
<g id="surface1">
     <defs>
  <style id="current-color-scheme" type="text/css">
   .ColorScheme-Text { color:#eeeeee; } .ColorScheme-Highlight { color:#424242; }
  </style>
 </defs>
<path style="fill:currentColor" class="ColorScheme-Text" d="M 12.238281 1.449219 C 12.125 1.449219 12.011719 1.460938 11.90625 1.488281 L 11.90625 1.453125 L 1.984375 1.453125 C 1.742188 1.453125 1.519531 1.585938 1.402344 1.800781 C 1.289062 2.011719 1.300781 2.273438 1.4375 2.476562 L 5.164062 8.0625 L 1.4375 13.652344 C 1.300781 13.855469 1.289062 14.113281 1.402344 14.328125 C 1.519531 14.542969 1.742188 14.675781 1.984375 14.675781 L 11.90625 14.675781 L 11.90625 14.636719 C 12.011719 14.664062 12.125 14.679688 12.238281 14.679688 L 13.230469 14.679688 C 13.964844 14.679688 14.554688 14.089844 14.554688 13.355469 L 14.554688 2.769531 C 14.554688 2.039062 13.964844 1.449219 13.230469 1.449219 Z M 3.214844 2.769531 L 12.570312 2.769531 C 12.933594 2.769531 13.230469 3.066406 13.230469 3.433594 L 13.230469 12.695312 C 13.230469 13.058594 12.933594 13.355469 12.570312 13.355469 L 10.914062 13.355469 L 10.914062 13.359375 L 3.214844 13.359375 L 6.5 8.429688 C 6.648438 8.207031 6.648438 7.917969 6.5 7.699219 Z M 3.214844 2.769531 "/>
</g>
</svg>
